icons/train-wifi-fill.svg

<svg xmlns="http://www.w3.org/2000/svg" width="24" height="24" fill="none"><g clip-path="url(#a)"><g><path fill="#121212" d="M12.498 3C11.972 4.26608 11.8586 5.66577 12.174 7H5V11H15.035C16.0719 11.655 17.2736 12.0018 18.5 12C19.3581 12.0012 20.2079 11.8319 21 11.502V18C21 18.5304 20.7893 19.0391 20.4142 19.4142C20.0391 19.7893 19.5304 20 19 20H17.2L19 21.5V22H5V21.5L6.8 20H5C4.46957 20 3.96086 19.7893 3.58579 19.4142C3.21071 19.0391 3 18.5304 3 18V7C3 5.93913 3.42143 4.92172 4.17157 4.17157C4.92172 3.42143 5.93913 3 7 3H12.498ZM12 14C11.4696 14 10.9609 14.2107 10.5858 14.5858C10.2107 14.9609 10 15.4696 10 16C10 16.5304 10.2107 17.0391 10.5858 17.4142C10.9609 17.7893 11.4696 18 12 18C12.5304 18 13.0391 17.7893 13.4142 17.4142C13.7893 17.0391 14 16.5304 14 16C14 15.4696 13.7893 14.9609 13.4142 14.5858C13.0391 14.2107 12.5304 14 12 14ZM18.5 1C19.6935 1 20.8381 1.47411 21.682 2.31802C22.5259 3.16193 23 4.30653 23 5.5C23 6.69347 22.5259 7.83807 21.682 8.68198C20.8381 9.52589 19.6935 10 18.5 10C17.3065 10 16.1619 9.52589 15.318 8.68198C14.4741 7.83807 14 6.69347 14 5.5C14 4.30653 14.4741 3.16193 15.318 2.31802C16.1619 1.47411 17.3065 1 18.5 1ZM18.5 6.167C18.009 6.167 17.56 6.344 17.211 6.637L17.086 6.752L18.5 8.167L19.913 6.751C19.7275 6.56548 19.5072 6.4184 19.2647 6.31819C19.0222 6.21798 18.7624 6.1666 18.5 6.167ZM18.5 3.5C17.344 3.49826 16.2289 3.92714 15.372 4.703L15.199 4.868L16.143 5.81C16.4521 5.49989 16.8195 5.25394 17.224 5.08627C17.6285 4.9186 18.0621 4.83253 18.5 4.833C19.3104 4.83177 20.0932 5.12699 20.701 5.663L20.857 5.81L21.8 4.867C21.3671 4.43296 20.8528 4.08875 20.2864 3.85415C19.7201 3.61956 19.113 3.4992 18.5 3.5Z"/></g></g><defs><clipPath id="a"><rect width="24" height="24" fill="white"/></clipPath></defs></svg>

<svg width="24" height="24" fill="none" xmlns="http://www.w3.org/2000/svg"><g clip-path="url(#a)"><path d="M12.498 3a6.518 6.518 0 0 0-.324 4H5v4h10.035a6.47 6.47 0 0 0 3.465 1 6.479 6.479 0 0 0 2.5-.498V18a2 2 0 0 1-2 2h-1.8l1.8 1.5v.5H5v-.5L6.8 20H5a2 2 0 0 1-2-2V7a4 4 0 0 1 4-4h5.498ZM12 14a2 2 0 1 0 0 4 2 2 0 0 0 0-4Zm6.5-13a4.5 4.5 0 1 1 0 9 4.5 4.5 0 0 1 0-9Zm0 5.167c-.491 0-.94.177-1.289.47l-.125.115L18.5 8.167l1.413-1.416a1.993 1.993 0 0 0-1.413-.584Zm0-2.667a4.65 4.65 0 0 0-3.128 1.203l-.173.165.944.942a3.323 3.323 0 0 1 2.357-.977 3.32 3.32 0 0 1 2.201.83l.156.147.943-.943A4.652 4.652 0 0 0 18.5 3.5Z" /></g><defs><clipPath id="a"><path fill="#fff" d="M0 0h24v24H0z"/></clipPath></defs></svg>
